.local/share/icons/Gruvbox-Plus-Dark/actions/16/path-tweak-repel.svg

<svg width="16" height="16" version="1.1" xmlns="http://www.w3.org/2000/svg">
  <defs>
    <style id="current-color-scheme" type="text/css">.ColorScheme-Text { color:#ebdbb2; } .ColorScheme-Highlight { color:#458588; }</style>
  </defs>
  <path class="ColorScheme-Text" d="m0 5c4 0 3-3 8-3s4 3 8 3v2c-5 0-3-3-8-3s-3 3-8 3z" fill="currentColor"/>
  <path class="ColorScheme-Text" d="m16 11c-4 0-3 3-8 3s-4-3-8-3v-2c5 0 3 3 8 3s3-3 8-3z" fill="currentColor"/>
</svg>

<svg xmlns="http://www.w3.org/2000/svg" width="16" height="16" version="1.1">
 <defs>
  <style id="current-color-scheme" type="text/css">
   .ColorScheme-Text { color:#565656; } .ColorScheme-Highlight { color:#4285f4; }
  </style>
 </defs>
 <path style="fill:currentColor" class="ColorScheme-Text" d="M 0,5 C 4,5 3,2 8,2 13,2 12,5 16,5 V 7 C 11,7 13,4 8,4 3,4 5,7 0,7 Z"/>
 <path style="fill:currentColor" class="ColorScheme-Text" d="M 16,11 C 12,11 13,14 8,14 3,14 4,11 0,11 V 9 C 5,9 3,12 8,12 13,12 11,9 16,9 Z"/>
</svg>
